src/assets/icons/brands-logos,simple,notion.svg

<svg width="48" height="48" viewBox="0 0 48 48" fill="none" xmlns="http://www.w3.org/2000/svg">
<rect opacity="0.2" x="5" y="5" width="38" height="38" rx="4" fill="black"/>
<path fill-rule="evenodd" clip-rule="evenodd" d="M19.0943 16.6853C17.8609 16.7705 17.5807 16.7899 16.8803 16.2076L15.0993 14.7612C14.9177 14.5742 15.0088 14.3408 15.4648 14.2946L27.9702 13.3613C29.0196 13.2677 29.5672 13.6416 29.9781 13.9681L32.123 15.5547C32.2144 15.6012 32.4421 15.8808 32.1682 15.8808L19.2535 16.6743C19.1987 16.678 19.1457 16.6817 19.0943 16.6853ZM17.6557 33.1917V19.2874H17.6557C17.6557 18.6809 17.8383 18.4007 18.3857 18.3536L33.2178 17.4674C33.7209 17.4208 33.9487 17.7476 33.9487 18.3536V32.1647C33.9487 32.7717 33.8572 33.2857 33.0354 33.3319L18.8421 34.1723C18.0207 34.2185 17.6557 33.939 17.6557 33.1917ZM31.2557 20.9208C31.6673 20.8735 31.7583 20.4536 31.6673 20.0332L28.5174 20.2208C28.0609 20.2671 27.6964 20.6403 27.7874 21.1541L28.9744 21.2935V27.7329L24.3191 20.4537L20.9417 20.6867C20.3023 20.7337 20.0744 21.3398 20.1659 21.7601L21.3066 21.8537V31.0459L20.485 31.2789C20.1657 31.3723 20.0742 31.8385 20.1657 32.0254L23.314 31.8385C24.456 31.8385 24.456 30.999 24.456 30.999L23.0405 30.6722V23.7199L27.5138 30.9056C28.0609 31.605 28.2439 31.8385 28.9744 31.8385C29.4306 31.8385 29.9781 31.6518 30.5719 31.3253V21.0602L31.2557 20.9208Z" fill="black"/>
<path opacity="0.4" fill-rule="evenodd" clip-rule="evenodd" d="M16.8799 16.2077C17.6094 16.8142 17.8831 16.7679 19.253 16.6744L32.1678 15.8809C32.4417 15.8809 32.2139 15.6013 32.1225 15.5548L29.9777 13.9682C29.5667 13.6417 29.0192 13.2678 27.9698 13.3614L15.4644 14.2946C15.0083 14.3409 14.9172 14.5743 15.0988 14.7613L16.8799 16.2077ZM17.6553 19.2874V33.1918C17.6553 33.939 18.0202 34.2186 18.8416 34.1724L33.0349 33.332C33.8567 33.2858 33.9483 32.7718 33.9483 32.1648V18.3537C33.9483 17.7477 33.7204 17.4208 33.2174 17.4675L18.3852 18.3537C17.8378 18.4008 17.6552 18.681 17.6552 19.2874H17.6553ZM31.6669 20.0333C31.7579 20.4536 31.6669 20.8736 31.2553 20.9209L30.5715 21.0603V31.3254C29.9777 31.6519 29.4302 31.8386 28.9739 31.8386C28.2434 31.8386 28.0605 31.6051 27.5133 30.9056L23.0401 23.72V30.6723L24.4556 30.9991C24.4556 30.9991 24.4556 31.8386 23.3136 31.8386L20.1653 32.0255C20.0738 31.8386 20.1653 31.3724 20.4846 31.279L21.3062 31.046V21.8537L20.1655 21.7602C20.074 21.3399 20.3018 20.7338 20.9412 20.6867L24.3186 20.4538L28.9739 27.7329V21.2936L27.787 21.1542C27.6959 20.6403 28.0605 20.2672 28.5169 20.2209L31.6669 20.0333ZM14.4144 13.0349L27.422 12.0547C29.0194 11.9145 29.4304 12.0085 30.4343 12.7547L34.5865 15.7409C35.2716 16.2544 35.5 16.3942 35.5 16.954V33.332C35.5 34.3585 35.1346 34.9655 33.857 35.0584L18.7512 35.9918C17.7921 36.0385 17.3357 35.8987 16.8334 35.2451L13.7757 31.1856C13.2279 30.4383 13 29.8793 13 29.2253V14.6674C13 13.828 13.3655 13.1278 14.4144 13.0349Z" fill="black"/>
</svg>

<svg xmlns="http://www.w3.org/2000/svg" width="48" height="48" fill="none" viewBox="0 0 48 48">
  <rect width="38" height="38" x="5" y="5" fill="#000" opacity=".2" rx="4"/>
  <path fill="#000" fill-rule="evenodd" d="M19.094 16.685c-1.233.085-1.513.105-2.214-.477L15.1 14.76c-.182-.187-.091-.42.365-.466l12.505-.934c1.05-.093 1.597.28 2.008.607l2.145 1.587c.091.046.32.326.045.326l-12.915.793-.159.011zm-1.438 16.507V19.287c0-.606.182-.886.73-.933l14.832-.887c.503-.046.73.28.73.887v13.81c0 .608-.09 1.122-.913 1.168l-14.193.84c-.821.047-1.186-.233-1.186-.98zm13.6-12.271c.411-.047.502-.467.411-.888l-3.15.188c-.456.046-.82.42-.73.933l1.187.14v6.439l-4.655-7.28-3.377.234c-.64.047-.868.653-.776 1.073l1.14.094v9.192l-.821.233c-.32.093-.41.56-.32.746l3.149-.186c1.142 0 1.142-.84 1.142-.84l-1.415-.327V23.72l4.473 7.186c.547.699.73.933 1.46.933.457 0 1.004-.187 1.598-.514V21.06l.684-.14z" clip-rule="evenodd"/>
  <path fill="#000" fill-rule="evenodd" d="M16.88 16.208c.73.606 1.003.56 2.373.466l12.915-.793c.274 0 .046-.28-.045-.326l-2.145-1.587c-.411-.326-.959-.7-2.008-.607l-12.506.934c-.456.046-.547.28-.365.466l1.78 1.447zm.775 3.08v13.904c0 .747.365 1.027 1.187.98l14.193-.84c.822-.046.913-.56.913-1.167V18.354c0-.606-.228-.933-.73-.886l-14.833.886c-.547.047-.73.327-.73.933zm14.012.745c.09.42 0 .84-.412.888l-.683.14v10.264c-.594.327-1.142.514-1.598.514-.73 0-.913-.234-1.46-.933L23.04 23.72v6.952l1.416.327s0 .84-1.142.84l-3.149.187c-.091-.187 0-.654.32-.747l.821-.233v-9.192l-1.14-.094c-.092-.42.136-1.026.775-1.073l3.378-.233 4.655 7.279v-6.44l-1.187-.139c-.091-.514.274-.887.73-.933l3.15-.188zm-17.253-6.998l13.008-.98c1.597-.14 2.008-.046 3.012.7l4.152 2.986c.686.513.914.653.914 1.213v16.378c0 1.026-.365 1.633-1.643 1.726l-15.106.934c-.959.047-1.415-.093-1.918-.747l-3.057-4.06c-.548-.747-.776-1.306-.776-1.96V14.667c0-.839.366-1.54 1.414-1.632z" clip-rule="evenodd" opacity=".4"/>
</svg>
